src/helpers/heroicons/outline/server.svg

<svg width="24" height="24" viewBox="0 0 24 24" fill="none" xmlns="http://www.w3.org/2000/svg">
<path d="M21.75 17.25V17.0223C21.75 16.6753 21.7099 16.3294 21.6304 15.9916L19.3622 6.35199C19.0035 4.82745 17.6431 3.75 16.077 3.75H7.92305C6.35688 3.75 4.99648 4.82745 4.63777 6.35199L2.36962 15.9916C2.29014 16.3294 2.25 16.6753 2.25 17.0223V17.25M21.75 17.25C21.75 18.9069 20.4069 20.25 18.75 20.25H5.25C3.59315 20.25 2.25 18.9069 2.25 17.25M21.75 17.25C21.75 15.5931 20.4069 14.25 18.75 14.25H5.25C3.59315 14.25 2.25 15.5931 2.25 17.25M18.75 17.25H18.7575V17.2575H18.75V17.25ZM15.75 17.25H15.7575V17.2575H15.75V17.25Z"  stroke-width="1.5" stroke-linecap="round" stroke-linejoin="round"/>
</svg>

<svg xmlns="http://www.w3.org/2000/svg" fill="none" viewBox="0 0 24 24" stroke-width="1.5" stroke="currentColor" aria-hidden="true" data-slot="icon">
  <path stroke-linecap="round" stroke-linejoin="round" d="M21.75 17.25v-.228a4.5 4.5 0 0 0-.12-1.03l-2.268-9.64a3.375 3.375 0 0 0-3.285-2.602H7.923a3.375 3.375 0 0 0-3.285 2.602l-2.268 9.64a4.5 4.5 0 0 0-.12 1.03v.228m19.5 0a3 3 0 0 1-3 3H5.25a3 3 0 0 1-3-3m19.5 0a3 3 0 0 0-3-3H5.25a3 3 0 0 0-3 3m16.5 0h.008v.008h-.008v-.008Zm-3 0h.008v.008h-.008v-.008Z"/>
</svg>
